X: 17987
T: Hughie Jim Paul's
R: reel
M: 4/4
K: Gminor
|:F2Bd cBGB|FBdf e2de|fbba bfdf|egfd cdBG|
F2Bd cBGB|FBdf e2de|f2ba bfdf|1 gefd B2BG:|2 gefd B2 (3abc'||
|:d'c'ba gfdc|Bf (3fff f2 (3fga|bf (3fff gfdf|egfd c2 (3abc'|
d'c'ba gfdc|Bf (3fff f2ed|e2 (3fga bfdf|1 gefd B2(3abc':|2 gefd B2BG||

